X:1
T:Title
%%score { ( 1 3 ) | ( 2 4 ) }
L:1/8
Q:1/4=120
M:9/16
K:D
V:1 treble nm="Piano" snm="Pno."
V:3 treble 
V:2 bass 
V:4 bass 
V:1
"^Sinfonia 15." !5!B/!2!F/!3!F/ !1!G/!3!F/!2!F/ !5!B/!2!F/!1!F/ | %1
 !5!c/!2!F/!3!F/ !1!G/!3!F/!2!F/ !5!c/!2!F/!1!F/ | %2
 !4!d/4!1!B/4!2!d/4!3!f/4!5!b/4!2!f/4 !1!d/4!4!f/4!2!d/4!1!B/4!3!d/4!1!B/4 !2!F/4!4!B/4F/4!2!D/4!3!F/4D/4 | %3
 B,/ z/ z/ z/ !3!B/c/ d/c/B/ | ^A3/2- A/B/c/ B/c/A/ | %5
 !3!B/4!1!F/4!2!B/4!3!d/4!5!f/4!3!d/4 !1!B/4!3!d/4!1!B/4!2!F/4!5!B/4!2!F/4 !1!D/4!3!F/4!2!D/4!1!B,/4!2!D/4!1!B,/4 | %6
 !5!d3- d3/2- | d/!3!B/!2!B/ !3!c/!2!B/!3!B/ !5!e/!3!B/!2!B/ | !5!c3- c3/2- | %9
 c/!3!A/!2!A/ !3!B/!2!A/!3!A/ !5!d/!3!A/!2!A/ | %10
 !4!B/4d/4B/4!2!G/4B/4G/4 E3/2 !4!e/4g/4e/4!2!c/4e/4c/4 | %11
 A/4!3!c/4A/4!2!F/4A/4F/4 D3/2 !3!d/4f/4d/4B/4!3!d/4!1!B/4 | %12
 !2!G/4!4!B/4G/4E/4!3!G/4!1!E/4 !2!C/4!4!E/4C/4A,/4C/4A,/4 !5!A/!3!F/!1!G/ | !5!F3/2 z3/2 z3/2 | %14
 z9/2 | z9/2 | !5!A/!2!E/!1!E/ !3!F/!1!E/!2!E/ !5!A/!2!E/!1!E/ | %17
 !5!B/!2!E/!1!E/ !3!F/!1!E/!2!E/ !5!B/!2!E/!1!E/ | %18
 !4!c/4!1!A/4!2!c/4e/4a/4f/4 !2!^d/4f/4d/4B/4!3!d/4B/4 !2!F/4B/4F/4^D/4!3!F/4D/4 | %19
 !4!E3/2 z3/2 !5!G3/2- | G/!3!E/!2!E/ !3!F/!2!E/!3!E/ !5!A/!3!E/!4!E/ | !5!F3- F3/2- | %22
 F/!3!D/!2!D/ !3!E/!2!D/!3!D/ !5!G/!3!D/!4!D/ | E3- E3/2- | %24
 E/!3!C/!2!C/ !3!D/!2!C/!3!C/ !5!F/!2!C/!3!C/ | %25
 !3!D/4!1!B,/4!2!D/4!4!F/4!1!D/4!2!F/4 !5!B/4!2!F/4!1!B/4!2!d/4!1!B/4!2!d/4 !5!g3/2 | %26
 !2!C/4A,/4C/4!4!E/4!2!C/4!1!E/4 !2!A/4!1!E/4!2!A/4!3!c/4!1!A/4!2!c/4 !4!f3/2 | %27
 !1!G/4!4!B/4!2!G/4D/4!2!G/4D/4 !2!G/4!1!D/4!2!G/4!4!B/4!1!G/4!3!B/4 !5!e3/2- | %28
 e/!1!F/!2!F/ !1!G/!2!F/!1!F/ !5!e/!1!F/!2!F/ | !5!d3- d3/2- | %30
 d/!3!B/!2!B/ !4!=c/!3!B/!2!B/ !5!g/!2!B/!4!B/ | !2!^A3/2 !fermata!!5!f3- | %32
 f/4!1!B/4!2!d/4!3!f/4b/4f/4 d/4f/4d/4B/4d/4B/4 !3!F/4B/4F/4!2!D/4!3!F/4!1!D/4 | !5!d3- d3/2- | %34
 d/!3!c/!2!c/ !5!^g/!2!c/!3!c/ !4!d/!3!c/!2!c/ | !4!e/!3!c/!2!c/ ^a/!3!c/!4!d/ e/d/c/ | %36
 !4!f/g/!3!e/ !2-4!d3/2 T!34!cB/ | B6 |] %38
V:2
"Bm" B,,3/2 z/ !3!B,/C/ D/C/B,/ | ^A,3/2- A,/B,/C/ B,/C/A,/ | B,3/2 z3/2 z3/2 | %3
 !1!B,/!4!F,/!3!F,/ !2!G,/!3!F,/!4!F,/ B,/!4!F,/!3!F,/ | %4
 !1!C/!4!F,/!3!F,/ !2!G,/!3!F,/!4!F,/ !1!C/!4!F,/!5!F,/ | x3 !4!F,/4!1!B,/4!2!F,/4D,/4F,/4D,/4 | %6
 !5!B,,3/2 z/ !4!B,/C/ D/C/B,/ | E3/2 z/ !4!E,/F,/ ^G,/F,/E,/ | A,3/2 z/ !4!A,,/B,,/ C,/B,,/A,,/ | %9
 D,3/2 z/ !4!D,,/E,,/ F,,/E,,/D,,/ | %10
 !1-5!G,,3/2 !2!G,/4B,/4G,/4!4!E,/4!1!G,/4!2!E,/4 !3!C,/4!1!E,/4!2!C,/4!4!A,,/4C,/4A,,/4 | %11
 F,,3/2 !2!F,/4A,/4F,/4!4!D,/4F,/4!1!D,/4 !2!B,,/4!1!D,/4B,,/4!4!G,,/4!1!B,,/4!3!G,,/4 | %12
 !5!E,,3/2 !2!E,/4G,/4E,/4!3!C,/4!1!E,/4!2!C,/4 A,,/4C,/4!1!A,,/4!3!F,,/4A,,/4F,,/4 | %13
 !5!D,,3/2 z/ !3!D,,/E,,/ F,,/E,,/D,,/ | !4!C,,3/2 z/ !4!A,,/B,,/ C,/B,,/A,,/ | %15
 !1!D,3/2- D,/!2!E,/!1!F,/ E,/F,/D,/ | !3!E,3/2 z/ !4!A,/B,/ C/!1!B,/A,/ | %17
 ^G,3/2- G,/A,/B,/ A,/B,/!2!G,/ | A,3/2- !1!A,/!2!B,/!1!=C/ B,/C/!3!A,/ | %19
 !1!G,3/2 z/ !4!E,/F,/ G,/F,/E,/ | A,3/2 z/ !4!A,,/B,,/ C,/B,,/A,,/ | %21
 D,3/2 z/ !4!D,/E,/ F,/E,/D,/ | !1!B,3- B,3/2- | %23
 B,/!2!^G,/!1!G,/ !2!A,/!1!G,/!2!G,/ C/!1!G,/!2!G,/ | !1!^A,3- A,3/2 | !2!B,/ z/ z/ z3/2 z3/2 | %26
 !1!A3/2 !3!C,/4A,,/4!3!C,/4!2!E,/4!4!C,/4E,/4 A,/4!4!F,/4!2!A,/4D/4!3!A,/4!1!D/4 | %27
 !2!B,/4G,/4B,/4!1!D/4B,/4D/4[K:bass] !2!B,/4D/4!1!B,/4!2!G,/4!1!B,/4G,/4 !4!E,/4!1!G,/4!2!E,/4!3!C,/4!1!E,/4C,/4 | %28
 !4!^A,,3/2- A,,/B,,/C,/ F,,/!2!B,,/!3!A,,/ | !5!B,,3/2 z3/2 !5!B,,3/2 | !4!E,3- E,3/2- | %31
 E,3/2- !fermata!E,3 | D, z/ z3/2 z3/2 | %33
 !4!B,/4!5!G,/4!4!B,/4!2!D/4!1!G/4!2!D/4 !3!B,/4!1!D/4!2!B,/4!4!G,/4!1!B,/4!2!G,/4 !5!D,/4!1!G,/4!2!D,/4!3!B,,/4D,/4B,,/4 | %34
 !5!^E,,3/2 z3/2 z3/2 | F,,3/2 z/ !3!E,/F,/ G,/F,/E,/ | D,!2!E,/ F,E,/ F,F,,/ | B,,6 |] %38
V:3
 x9/2 | x9/2 | x9/2 | x9/2 | x9/2 | %5
 !1!D/4!5!B,/4!4!D/4F/4B/4F/4 !4!D/4!2!F/4!1!D/4B,/4D/4B,/4 x3/2 | %6
 !4!B/!1!F/!2!F/ !1!G/!2!F/!1!F/ B/!1!F/!2!F/ | !1!^G3- G3/2 | %8
 !3!A/!1!E/!2!E/ !3!F/!1!E/!2!E/ !4!A/!1!E/!2!E/ | !1!F3- F3/2 | !1!G/ z/ z/ z3/2 z3/2 | x9/2 | %12
 x9/2 | !3!D/!1!A,/!2!A,/ !3!B,/!1!A,/!2!A,/ !4!D/!2!A,/!1!A,/ | %14
 !5!E/!2!A,/!1!A,/ !3!B,/!1!A,/!2!A,/ !5!E/!2!A,/!1!A,/ | %15
 !4!F/4!1!D/4!2!F/4A/4d/4B/4 !2!^G/4B/4G/4E/4!3!G/4E/4[I:staff +1] !2!B,/4E/4B,/4^G,/4B,/4G,/4 | %16
 x9/2 | x9/2 | x9/2 |[I:staff -1] E/!1!B,/!2!B,/ !3!=C/!2!B,/!1!B,/ !4!E/!1!B,/!2!B,/ | %20
 !1!^C3- C3/2- | C/!2!A,/!1!A,/ !3!B,/!1!A,/!2!A,/ !4!D/!1!A,/!2!A,/ | x9/2 | x9/2 | x9/2 | x9/2 | %26
 x9/2 | x9/2 | x9/2 | %29
 !1!F/[I:staff +1]!1!B,/!3!B,/[I:staff -1] !1!D/[I:staff +1]!3!B,/!1!B,/[I:staff -1] !2!F/[I:staff +1]!1!B,/!2!B,/ | %30
[I:staff -1] !1!G3- G3/2 | !1!F3/2 !2!^A3 | x9/2 | !4-1!B3- B3/2- | B3- B3/2 | %35
 !1!^A3/2 z/ !2!A/!1!B/ c/B/A/ | !1!B3 ^A3/2 | !fermata!B6 |] %38
V:4
 x9/2 | x9/2 | x9/2 | x9/2 | x9/2 | x9/2 | x9/2 | x9/2 | x9/2 | x9/2 | x9/2 | x9/2 | x9/2 | x9/2 | %14
 x9/2 | x9/2 | !5!C,3/2 z3/2 z3/2 | E,3/2 z3/2 z3/2 | A,,3/2 !5!F,3 | x9/2 | x9/2 | x9/2 | %22
 !1!G,3/2 z/ !2!G,/F,/ E,/F,/G,/ | C,3/2 z/ !2!C,/B,,/ ^A,,/B,,/C,/ | %24
 F,,3/2 z/ !1!F,/E,/ D,/E,/F,/ | %25
 B,,/ z/ z/ !3!D,/4!5!B,,/4!3!D,/4!2!F,/4!4!D,/4!2!F,/4 !1!B,/4!5!G,/4!3!B,/4!1!E/4!5!B,/4!2!E/4 | %26
 x9/2 | x3/2[K:bass] x3 | x9/2 | x9/2 | x9/2 | x9/2 | x9/2 | x9/2 | x9/2 | x9/2 | x9/2 | %37
 !fermata!B,,6 |] %38

